X:0960
T:Love will find out the way.
M:3/4
L:1/8
Q:1/4=80 "Slow"
I: || ||
Z:Jack Campin * www.campin.me.uk * 2009
K:D
GA|A3  BAG|GA A2de|f2 gfed|   e4 FG      |A3 BAG|FG A2  d2    |(ef/g/) f2  e2    |d4||
fg|a2 bagf|g2 agfe|f2 gfed|   A4 d/e/f/g/|a3 bag|f2 ed (ef/g/)| f2     ed (ga/b/)|a4
fg|af bagf|ge agfe|fd gfed|{c}B4 FG      |A3 BAG|FG A2  d2    | ef/g/  f2  e2    |d4|]
<end>
<start>
